public/uploads/figma-5 2.svg

<svg width="262" height="72" viewBox="0 0 262 72" fill="none" xmlns="http://www.w3.org/2000/svg">
<g clip-path="url(#clip0_2536_9358)">
<path d="M63.3317 0.0599976V55.5406L70.4776 55.5678V29.1601H87.7425V22.1706H70.4776V7.04946H92.9519V0.0599976H63.3317ZM105.853 11.3193C108.444 11.3193 110.517 9.22517 110.517 6.66871C110.517 4.11225 108.417 2.01814 105.853 2.01814C103.262 2.01814 101.189 4.11225 101.189 6.66871C101.189 9.22517 103.289 11.3193 105.853 11.3193ZM102.225 18.3088V55.5406H109.371V18.3088H102.225Z" fill="#959595"/>
<path fill-rule="evenodd" clip-rule="evenodd" d="M135.909 17.2209C126.391 17.2209 119.763 25.2439 119.763 34.7626C119.763 44.2813 126.391 52.3042 135.909 52.3042C140.273 52.3042 143.846 50.6181 146.465 47.8984V52.821C146.465 58.9945 141.61 64.1347 135.255 64.1347C132.964 64.1347 130.7 63.2644 128.9 62.0133L125.3 68.2141C128.163 70.0635 131.573 71.1241 135.228 71.1241C145.374 71.1241 153.583 62.938 153.583 52.821V18.3088H146.465V21.6268C143.846 18.9071 140.273 17.2209 135.909 17.2209ZM126.936 34.7626C126.936 28.861 131.464 24.2104 136.7 24.2104C141.937 24.2104 146.465 28.861 146.465 34.7626C146.465 40.6642 141.937 45.3148 136.7 45.3148C131.464 45.3148 126.936 40.6642 126.936 34.7626Z" fill="#959595"/>
<path d="M179.412 24.2104C175.185 24.2104 171.748 27.8003 171.748 32.0158V55.5406H164.602V18.3088H171.748V21.7083C173.848 19.0159 176.93 17.2209 180.967 17.2209C185.986 17.2209 189.831 19.6958 192.068 23.5033C194.55 19.8318 198.586 17.2209 203.469 17.2209C211.624 17.2209 216.697 23.7753 216.724 31.8798V55.5406H209.578V31.9886C209.578 27.7731 206.142 24.1832 201.914 24.1832C197.686 24.1832 194.25 27.7731 194.25 31.9886V55.5406H187.104V31.9886C187.077 27.7731 183.64 24.2104 179.412 24.2104Z" fill="#959595"/>
<path fill-rule="evenodd" clip-rule="evenodd" d="M254.854 22.5242C251.663 19.2335 247.299 17.2209 242.253 17.2209C231.616 17.2209 224.034 26.2229 224.034 36.9383C224.034 47.6537 231.589 56.6557 242.253 56.6557C247.299 56.6557 251.663 54.6159 254.854 51.3524V55.5406H262V18.3088H254.854V22.5242ZM231.207 36.9383C231.207 29.8401 236.662 24.2104 243.044 24.2104C249.399 24.2104 254.881 29.8129 254.881 36.9383C254.881 44.0366 249.426 49.6662 243.044 49.6662C236.662 49.639 231.207 44.0366 231.207 36.9383Z" fill="#959595"/>
<path d="M24.0289 36.0136C24.0289 29.4049 29.402 24.02 36.057 24.02C42.6848 24.02 48.0851 29.3777 48.0851 36.0136C48.0851 42.6223 42.712 48.0072 36.057 48.0072C29.4293 48.0072 24.0289 42.6223 24.0289 36.0136Z" fill="#959595"/>
<path d="M0 59.9736C0 53.3649 5.3731 47.98 12.0281 47.98H24.0562V59.9736C24.0562 66.5823 18.6831 71.9672 12.0281 71.9672C5.3731 71.9672 0 66.6095 0 59.9736Z" fill="#959595"/>
<path d="M24.0289 0.0600333V24.02H36.057C42.6848 24.02 48.0851 18.6623 48.0851 12.0264C48.0851 5.41772 42.712 0.0328369 36.057 0.0328369H24.0289V0.0600333Z" fill="#D8D8D8"/>
<path d="M0 12.0536C0 18.6623 5.3731 24.0472 12.0281 24.0472H24.0562V0.0599976H12.0281C5.3731 0.0599976 0 5.41768 0 12.0536Z" fill="#959595"/>
<path d="M0 36.0136C0 42.6223 5.3731 48.0072 12.0281 48.0072H24.0562V24.02H12.0281C5.3731 24.02 0 29.4049 0 36.0136Z" fill="#D8D8D8"/>
</g>
<defs>
<clipPath id="clip0_2536_9358">
<rect width="262" height="72" fill="white"/>
</clipPath>
</defs>
</svg>

<svg xmlns="http://www.w3.org/2000/svg" width="262" height="72" viewBox="0 0 262 72">
  <path fill="#959595" d="M63.33.06v55.48l7.15.03V29.16h17.26v-6.99H70.48V7.05h22.47V.06H63.33Zm42.52 11.26a4.66 4.66 0 1 0 .02-9.31 4.66 4.66 0 0 0-.02 9.3Zm-3.63 6.99v37.23h7.15V18.31h-7.15Z"/>
  <path fill="#959595" d="M135.9 17.22c-9.5 0-16.14 8.02-16.14 17.54s6.63 17.54 16.15 17.54a14.3 14.3 0 0 0 10.56-4.4v4.92a11.2 11.2 0 0 1-11.22 11.31 11.4 11.4 0 0 1-6.35-2.12l-3.6 6.2a18.23 18.23 0 0 0 9.93 2.91 18.32 18.32 0 0 0 18.35-18.3V18.31h-7.12v3.32a14.29 14.29 0 0 0-10.55-4.4Zm-8.96 17.54c0-5.9 4.52-10.55 9.76-10.55s9.77 4.65 9.77 10.55-4.53 10.55-9.77 10.55c-5.24 0-9.76-4.65-9.76-10.55Z" clip-rule="evenodd"/>
  <path fill="#959595" d="M179.41 24.21a7.8 7.8 0 0 0-7.66 7.8v23.53h-7.15V18.31h7.15v3.4a11.3 11.3 0 0 1 9.22-4.49c5.02 0 8.86 2.48 11.1 6.28 2.48-3.67 6.52-6.28 11.4-6.28 8.15 0 13.23 6.56 13.25 14.66v23.66h-7.14V32a7.8 7.8 0 0 0-7.67-7.8 7.8 7.8 0 0 0-7.66 7.8v23.55h-7.15V32a7.82 7.82 0 0 0-7.69-7.78Zm75.44-1.69a17.3 17.3 0 0 0-12.6-5.3c-10.63 0-18.22 9-18.22 19.72 0 10.71 7.56 19.72 18.22 19.72a17.4 17.4 0 0 0 12.6-5.3v4.18H262V18.31h-7.15v4.21Zm-23.64 14.42c0-7.1 5.45-12.73 11.83-12.73 6.36 0 11.84 5.6 11.84 12.73 0 7.1-5.45 12.73-11.84 12.73-6.38-.03-11.83-5.63-11.83-12.73Zm-207.18-.93a12.02 12.02 0 0 1 24.06.01 12.03 12.03 0 0 1-24.06 0ZM0 59.97c0-6.6 5.37-11.99 12.03-11.99h12.03v12c0 6.6-5.38 11.99-12.03 11.99A12 12 0 0 1 0 59.97Z"/>
  <path fill="#D8D8D8" d="M24.03.06v23.96h12.03c6.62 0 12.03-5.36 12.03-12C48.09 5.43 42.7.04 36.06.04H24.03v.03Z"/>
  <path fill="#959595" d="M0 12.05c0 6.61 5.37 12 12.03 12h12.03V.06H12.03A12 12 0 0 0 0 12.06Z"/>
  <path fill="#D8D8D8" d="M0 36.01c0 6.61 5.37 12 12.03 12h12.03V24.02H12.03A12.01 12.01 0 0 0 0 36.02Z"/>
</svg>
